assets/icons/functional/design/columns.svg

<svg width="32" height="32" viewBox="0 0 32 32" fill="none" xmlns="http://www.w3.org/2000/svg"><g id="Icon-Columns"><g clip-path="url(#clip0_8_1438)"><g id="size=md (32px)"><g id="Columns"><path id="Vector" d="M14 26L14 6C14 5.44772 13.5523 5 13 5H8C7.44772 5 7 5.44772 7 6L7 26C7 26.5523 7.44772 27 8 27H13C13.5523 27 14 26.5523 14 26Z" stroke="#101828" stroke-width="2" stroke-linecap="round" stroke-linejoin="round"/><path id="Vector_2" d="M25 26V6C25 5.44772 24.5523 5 24 5H19C18.4477 5 18 5.44772 18 6V26C18 26.5523 18.4477 27 19 27H24C24.5523 27 25 26.5523 25 26Z" stroke="#101828" stroke-width="2" stroke-linecap="round" stroke-linejoin="round"/></g></g></g></g><defs><clipPath id="clip0_8_1438"><rect width="32" height="32" rx="5" fill="white"/></clipPath></defs></svg>

<svg xmlns="http://www.w3.org/2000/svg" width="32" height="32" fill="none"><path stroke="#101828" stroke-linecap="round" stroke-linejoin="round" stroke-width="2" d="M14 26V6a1 1 0 0 0-1-1H8a1 1 0 0 0-1 1v20a1 1 0 0 0 1 1h5a1 1 0 0 0 1-1Zm11 0V6a1 1 0 0 0-1-1h-5a1 1 0 0 0-1 1v20a1 1 0 0 0 1 1h5a1 1 0 0 0 1-1Z"/></svg>
